public/icons/icon/code.svg

<svg width="30" height="30" viewBox="0 0 30 30" fill="none" xmlns="http://www.w3.org/2000/svg">
<path d="M19.9285 5.37141C20.1336 4.85863 19.8842 4.27666 19.3714 4.07155C18.8586 3.86643 18.2766 4.11585 18.0715 4.62863L10.0715 24.6286C9.86641 25.1414 10.1158 25.7234 10.6286 25.9285C11.1414 26.1336 11.7234 25.8842 11.9285 25.3714L19.9285 5.37141Z" fill="black"/>
<path d="M7.70711 10.2929C8.09763 10.6834 8.09763 11.3166 7.70711 11.7071L4.41421 15L7.70711 18.2929C8.09763 18.6834 8.09763 19.3166 7.70711 19.7071C7.31658 20.0977 6.68342 20.0977 6.29289 19.7071L2.29289 15.7071C1.90237 15.3166 1.90237 14.6834 2.29289 14.2929L6.29289 10.2929C6.68342 9.90239 7.31658 9.90239 7.70711 10.2929Z" fill="black"/>
<path d="M22.2929 10.2929C22.6834 9.90239 23.3166 9.90239 23.7071 10.2929L27.7071 14.2929C28.0976 14.6834 28.0976 15.3166 27.7071 15.7071L23.7071 19.7071C23.3166 20.0977 22.6834 20.0977 22.2929 19.7071C21.9024 19.3166 21.9024 18.6834 22.2929 18.2929L25.5858 15L22.2929 11.7071C21.9024 11.3166 21.9024 10.6834 22.2929 10.2929Z" fill="black"/>
</svg>

<svg xmlns="http://www.w3.org/2000/svg" width="30" height="30" fill="none"><path fill="#000" d="M19.928 5.371a1 1 0 1 0-1.857-.742l-8 20a1 1 0 0 0 1.857.742l8-20ZM7.707 10.293a1 1 0 0 1 0 1.414L4.414 15l3.293 3.293a1 1 0 1 1-1.414 1.414l-4-4a1 1 0 0 1 0-1.414l4-4a1 1 0 0 1 1.414 0ZM22.293 10.293a1 1 0 0 1 1.414 0l4 4a1 1 0 0 1 0 1.414l-4 4a1 1 0 1 1-1.414-1.414L25.586 15l-3.293-3.293a1 1 0 0 1 0-1.414Z"/></svg>
